Icons/SVG/brands/linkedin.svg

<?xml version="1.0" encoding="UTF-8"?><svg id="Linkedin" xmlns="http://www.w3.org/2000/svg" viewBox="0 0 24 24"><path d="m22,2v-1H2v1h-1v20h1v1h20v-1h1V2h-1Zm-9,10v8h-3v-11h3v1h1v-1h4v1h1v10h-3v-8h-3Zm-9-4v-3h3v3h-3Zm3,1v11h-3v-11h3Z"/></svg>

<svg width="24" height="24" viewBox="0 0 24 24" fill="none" xmlns="http://www.w3.org/2000/svg">
<path d="M22 2V1H2V2H1V22H2V23H22V22H23V2H22ZM13 12V20H10V9H13V10H14V9H18V10H19V20H16V12H13ZM4 8V5H7V8H4ZM7 9V20H4V9H7Z" fill="black"/>
</svg>
